!!!OTL: ACH ICH FUEHLS ES IST VERSCHWUNDEN
!!!ARE: Europa, Mitteleuropa, Deutschland
!!!SCT: B0473
!!!YEM: Copyright 1995, estate of Helmut Schaffrath.
**kern
*ICvox
*Ivox
*M4/4
*k[b-e-]
*B-:
{8d
8e-
=1
4f
8g
8a
4b-
8cc
8dd
=2
4.dd
8cc
8ee-
8dd}
{16cc
16b-
16a
16g
=3
8g
4f
8b-
4a
8g
8a
=4
2b-
4r}
{8d
8e-
=5
4f
8g
8a
4b-
8cc
8dd
=6
4.dd
8cc
8ee-
8dd}
{16cc
16b-
16a
16g
=7
8g
4f
8b-
4a
8g
8a
=8
2b-
4r}
{8a
8b-
=9
4.cc
8cc
8b-
8a
8g
8f
=10
8f
8b-
4b-
4r}
{8a
8b-
=11
4.cc
8cc
8b-
8a
8g
8f
=12
2b-
4r}
{8d
8e-
=13
4f
8g
8a
4b-
8cc
8dd
=14
4.dd
8cc
8ee-
8dd}
{16cc
16b-
16a
16g
=15
8g
4f
8b-
4a
8g
8a
=16
2b-
4r}
{8d
8e-
=17
4f
8g
8a
4b-
8cc
8dd
=18
4.dd
8cc
8ee-
8dd}
{16cc
16b-
16a
16g
=19
8g
4f
8b-
4a
8g
8a
=20
2b-
4r}
==
!!!AGN: Liebes - Lied, Leid, Klage
!!!ONB: ESAC (Essen Associative Code) Database: BOEHME
!!!AMT: simple quadruple
!!!AIN: vox
!!!EED: Helmut Schaffrath
!!!EEV: 1.0
*-
